images/leaf-second2.svg

<svg width="293" height="213" viewBox="0 0 293 213" fill="none" xmlns="http://www.w3.org/2000/svg">
<path fill-rule="evenodd" clip-rule="evenodd" d="M103.588 161.186C102.467 163.045 103.192 166.056 103.488 168.047C103.219 163.163 106.58 157.664 108.39 153.314C110.151 149.081 111.62 144.713 112.665 140.24C112.689 140.143 114.896 130.16 111.651 132.067C102.629 137.314 108.45 153.841 103.588 161.186ZM99.7031 85.538C102.441 89.1401 116.254 106.09 121.26 100.494C125.244 96.0412 117.05 85.368 113.618 82.9763C107.9 78.9986 101.77 75.7491 96.2891 71.3885C96.903 76.4873 96.4063 81.2319 99.7031 85.538ZM245.358 88.4116C249.771 87.7535 254.197 87.0681 258.551 86.0886C253.497 86.8341 248.501 87.4417 243.544 88.7077L245.359 88.411L245.358 88.4116ZM11.547 169.667C10.6222 167.332 15.7717 163.38 16.9836 162.094C20.3058 158.564 23.7238 154.639 24.3138 149.969C25.3984 146.304 16.8182 148.209 14.2258 147.77C12.4082 147.462 7.95079 146.427 7.02005 144.551C5.02672 140.533 11.4274 138.363 14.2205 137.049C18.3118 135.126 20.5167 134.633 16.1659 132.815C11.4887 130.863 1.52572 131.103 0.407909 124.252C-0.543373 118.416 9.24045 115.993 13.1241 115.099C20.4415 113.409 26.9632 114.469 33.8332 117.242C35.4352 117.887 45.14 121.315 44.4919 118.914C42.4234 113.664 35.3987 112.708 32.6614 107.911C31.106 105.185 31.0331 102.652 29.0575 99.9658C27.1074 97.3137 23.0963 93.4304 24.9399 89.6632C26.1109 87.2727 28.8904 86.8776 30.9955 87.611C36.1163 89.0184 39.558 92.2644 44.0732 94.825C47.3779 96.6973 51.1084 95.996 54.0006 98.7822C58.3675 103.099 62.7522 107.957 67.579 111.98C69.0919 113.241 76.167 118.665 76.6162 114.502C76.8694 112.159 69.6245 108.141 68.4454 107.275C65.6288 105.206 62.6136 103.487 61.086 100.15C60.2102 98.2376 60.6517 96.1836 59.9563 94.6959C57.8985 90.2989 51.9532 87.0053 49.313 82.8192C46.9443 79.0626 41.4342 69.5629 43.0303 65.0192C45.2152 58.7976 51.548 65.3609 54.6535 67.6836C58.0909 70.2564 61.078 72.8536 64.8572 74.6437C68.1922 76.2262 70.6241 77.9673 72.9815 80.9981C77.3373 86.5971 80.2397 92.8725 83.7397 98.7665C83.7234 98.7491 83.7083 98.7307 83.6944 98.7114C85.792 102.098 88.7762 105.648 92.3777 107.574C98.4156 110.801 96.6225 106.989 93.6726 102.831C89.2266 96.5599 83.8055 90.9828 79.3411 84.7452C77.7508 82.523 76.2404 80.0922 76.0095 77.2794C75.8548 75.3925 77.0564 73.8798 77.097 72.5097C77.2436 67.7459 62.6532 41.2765 72.6188 39.6593C77.9998 38.7857 81.3076 50.7914 83.0775 53.9557C85.9042 59.0094 87.3045 63.4277 92.5699 66.1924C92.0783 63.9336 93.9698 62.3429 93.6825 60.3742C93.3396 58.0334 90.8884 55.9872 89.5524 54.1972C85.8795 49.2765 82.4949 44.0385 80.1721 38.3609C73.0862 21.0351 91.5334 34.133 97.3753 38.8823C98.4955 39.7941 99.9388 40.9372 101.226 41.9561C104.605 44.6219 105.706 44.1184 109.264 45.5084C115.316 47.8749 118.752 58.6975 120.718 64.4033C121.327 66.1638 131.69 93.8942 135.675 86.77C137.684 83.1778 131.154 71.2689 129.043 67.793C125.797 62.4488 117.342 55.1036 117.997 48.371C118.203 46.256 119.826 45.3668 120.123 43.47C120.822 39.0414 116.649 33.2938 115.557 29.1476C113.334 20.7092 117.912 14.6549 123.971 24.1929C126.368 27.9682 128.145 30.1877 131.244 33.4664C134.779 37.2073 134.698 42.3544 137.383 46.3297C139.602 49.6148 139.299 46.3615 142.892 48.66C145.874 50.5698 146.412 57.2722 146.791 60.5014C147.318 64.9862 146.969 83.5956 153.347 83.6709C159.16 83.7395 157.42 71.7436 156.714 68.3941C154.949 60.0152 149.509 53.8784 144.867 47.0122C142.605 43.6655 139.798 39.7068 138.695 35.7641C137.73 32.3082 138.863 29.6924 139.278 26.3604C139.761 22.4811 140.651 4.65053 148.922 10.3776C154.478 14.2253 152.504 23.984 157.448 28.267C157.979 23.6672 155.115 11.692 161.553 9.63708C167.769 7.6539 170.931 20.7347 172.487 25.069C173.439 27.7279 175.575 43.341 178.837 45.0247C182.243 46.7818 183.319 42.266 184.185 39.8013C185.669 35.5867 197.325 -3.11142 204.114 1.09806C209.38 4.36056 199.898 16.2906 201.931 19.7544C202.677 21.0276 204.013 20.0038 205.34 20.466C210.202 22.1618 211.086 24.6302 208.862 29.4836C221.818 31.2743 207.813 42.3959 203.3 46.2504C200.226 48.8758 186.837 59.8641 193.282 64.9756C195.449 66.6943 201.503 64.9317 204.209 65.6197C209.43 66.9486 210.228 71.8366 206.18 75.2496C203.397 77.5989 199.192 78.7431 195.645 79.2109C193.609 79.4818 187.89 78.7077 186.497 80.3411C194.142 84.6082 187.644 86.7113 182.032 88.8157C177.835 90.39 166.828 93.9856 166.81 99.9967C173.72 99.3602 180.4 96.8603 187.231 95.7415C194.711 94.5198 201.96 92.9323 209.544 90.9071C223.925 87.0651 239.127 83.6789 253.805 81.4939C260.984 80.4247 268.127 78.8944 275.229 77.3979C277.79 76.8563 290.895 71.7013 291.947 76.8388C293.368 83.7878 273.225 82.5056 269.521 84.681C242.979 89.7491 216.723 96.3486 190.124 100.747C192.494 101.318 197.759 105.331 195.866 108.314C197.939 108.571 201.723 107.907 203.318 109.521C206.842 113.094 202.077 112.566 201.394 114.28C200.229 117.21 206.361 117.858 208.622 118.524C219.164 121.62 229.444 127.101 239.232 132.073C244.602 134.802 256.359 147.619 245.876 151.36C240.644 153.228 232.756 149.085 228.327 146.787C225.533 145.338 218.749 139.665 215.296 140.164C215.1 144.247 220.286 152.346 221.752 155.907C224.856 163.437 226.231 169.235 222.373 176.86C213.206 194.974 205.902 162.175 203.333 163.498C201.527 164.429 204.096 179.72 204.326 181.677C204.834 186.015 205.002 198.414 198.365 199.012C192.796 199.513 190.496 188.468 189.237 184.851C188.181 181.817 186.079 178.776 185.275 175.283C184.612 172.41 185.073 169.356 184.484 166.55C183.872 163.632 181.444 162.051 180.712 158.767C179.886 155.082 179.931 150.76 179.447 146.953C178.638 140.591 177.883 131.82 172.039 127.682C167.386 138.378 174.201 151.58 176.478 162.102C177.616 167.364 179.289 173.756 175.305 178.053C173.704 179.778 174.571 177.431 172.823 179.974C172.43 180.544 172.302 181.555 172.096 182.211C170.627 186.916 169.793 191.762 168.449 196.495C167.616 199.43 165.77 209.338 161.983 210.175C155.114 211.693 154.524 187.289 153.919 182.68C153.464 179.194 153.565 175.383 152.958 171.989C152.403 168.873 150.442 166.78 150.776 163.229C151.208 158.63 153.098 154.104 154.042 149.602C155.312 143.546 155.284 137.865 154.541 131.762C154.233 129.234 153.853 123.315 150.897 122.802C146.147 121.979 147.195 131.53 147.15 134.034C147.017 141.449 148.965 149.612 146.977 157.705C144.923 166.078 149.741 173.845 148.997 182.232C148.728 185.262 148.049 186.656 146.117 188.878C143.972 191.352 142.873 192.476 141.776 196.223C140.782 199.619 136.987 216.596 130.991 211.595C129.045 209.973 130.003 206.324 130.059 204.22C130.18 199.584 130.042 194.932 130.277 190.3C130.426 187.36 131.299 184.026 130.558 181.109C129.855 178.342 128.322 176.913 128.676 173.738C129.151 169.464 132.396 164.531 132.087 160.36C131.795 156.383 130.298 152.492 130.397 148.194C130.478 144.775 133.698 127.032 131.059 126.012C125.695 123.936 125.344 145.851 125.284 147.518C124.896 158.147 126.058 169.481 125.29 180.174C125.031 183.767 123.243 185.619 122.107 188.4C120.597 192.093 120.831 197.021 119.599 200.949C118.617 204.081 116.047 212.268 112.093 208.041C109.234 204.987 110.143 196.645 109.676 192.658C109.151 188.15 108.304 183.742 108.295 179.191C108.293 178.212 108.692 176.293 108.412 175.41C107.629 172.968 104.541 172.457 103.729 169.595C104.413 172.501 104.256 174.875 102.794 177.407C102.414 178.069 100.963 178.919 100.373 179.684C98.5915 181.99 97.6929 185.413 96.5024 188.072C94.8264 191.805 83.9009 209.155 83.093 196.42C82.748 190.977 83.3271 185.426 84.1125 180.055C84.7284 175.834 86.3367 170.779 85.6923 166.535C85.0231 162.136 84.0942 160.853 86.0034 156.16C87.9656 151.336 91.7924 145.155 90.6573 139.783C88.3423 128.838 78.7382 155.073 77.8866 157.963C76.166 163.801 73.9254 169.888 69.7096 174.406C65.01 179.446 59.4323 182.625 55.5555 188.554C53.8282 191.198 48.8484 200.264 44.5812 197.536C40.3789 194.85 45.9749 184.726 47.0067 181.772C48.073 178.721 49.7193 175.509 50.4707 172.415C51.1511 169.606 50.6912 166.884 51.1672 164.037C52.5137 155.963 59.0523 152.286 62.6217 145.55C64.506 141.993 64.1212 139.541 59.5148 141.702C57.0269 142.866 55.05 145.929 53.0444 147.849C50.0286 150.737 46.7772 153.415 43.6368 156.171C39.3971 159.888 15.9912 180.998 11.547 169.667Z" fill="#89B99A"/>
</svg>

<svg width="293" height="213" fill="none" xmlns="http://www.w3.org/2000/svg"><path fill-rule="evenodd" clip-rule="evenodd" d="M103.588 161.186c-1.121 1.859-.396 4.87-.1 6.861-.269-4.884 3.092-10.383 4.902-14.733 1.761-4.233 3.23-8.601 4.275-13.074.024-.097 2.231-10.08-1.014-8.173-9.022 5.247-3.201 21.774-8.063 29.119Zm-3.885-75.648c2.738 3.602 16.551 20.552 21.557 14.956 3.984-4.453-4.21-15.126-7.642-17.518C107.9 79 101.77 75.75 96.289 71.388c.614 5.1.117 9.844 3.414 14.15Zm145.655 2.874c4.413-.659 8.839-1.344 13.193-2.323-5.054.745-10.05 1.353-15.007 2.619l1.815-.297h-.001ZM11.547 169.667c-.925-2.335 4.225-6.287 5.437-7.573 3.322-3.53 6.74-7.455 7.33-12.125 1.084-3.665-7.496-1.76-10.088-2.199-1.818-.308-6.275-1.343-7.206-3.219-1.993-4.018 4.407-6.188 7.2-7.502 4.092-1.923 6.297-2.416 1.946-4.234-4.677-1.952-14.64-1.712-15.758-8.563-.951-5.836 8.832-8.259 12.716-9.153 7.318-1.69 13.84-.63 20.71 2.143 1.601.645 11.306 4.073 10.658 1.672-2.069-5.25-9.093-6.206-11.83-11.003-1.556-2.726-1.629-5.259-3.604-7.945-1.95-2.652-5.962-6.536-4.118-10.303 1.17-2.39 3.95-2.785 6.055-2.052 5.121 1.407 8.563 4.653 13.078 7.214 3.305 1.872 7.035 1.171 9.928 3.957 4.367 4.317 8.751 9.175 13.578 13.198 1.513 1.261 8.588 6.685 9.037 2.522.253-2.343-6.992-6.361-8.17-7.227-2.817-2.069-5.832-3.788-7.36-7.125-.876-1.912-.434-3.966-1.13-5.454-2.058-4.397-8.003-7.69-10.643-11.877-2.369-3.756-7.879-13.256-6.283-17.8 2.185-6.221 8.518.342 11.623 2.665 3.438 2.572 6.425 5.17 10.204 6.96 3.335 1.582 5.767 3.323 8.124 6.354 4.356 5.6 7.259 11.874 10.759 17.768a.555.555 0 0 1-.046-.055c2.098 3.387 5.082 6.937 8.684 8.863 6.038 3.227 4.245-.585 1.295-4.743-4.446-6.271-9.868-11.848-14.332-18.086-1.59-2.222-3.1-4.653-3.331-7.466-.155-1.886 1.046-3.4 1.087-4.77.147-4.763-14.444-31.233-4.478-32.85 5.38-.873 8.689 11.132 10.459 14.297 2.826 5.053 4.227 9.472 9.492 12.236-.492-2.258 1.4-3.85 1.113-5.818-.343-2.34-2.795-4.387-4.13-6.177-3.674-4.92-7.058-10.159-9.38-15.836-7.087-17.326 11.36-4.228 17.202.521 1.12.912 2.564 2.055 3.851 3.074 3.379 2.666 4.48 2.162 8.038 3.552 6.052 2.367 9.488 13.19 11.454 18.895.609 1.76 10.972 29.491 14.957 22.367 2.009-3.592-4.521-15.501-6.632-18.977-3.246-5.344-11.701-12.69-11.046-19.422.206-2.115 1.829-3.004 2.126-4.901.699-4.429-3.474-10.176-4.566-14.322-2.223-8.439 2.355-14.493 8.414-4.955 2.397 3.775 4.174 5.995 7.273 9.273 3.535 3.741 3.454 8.888 6.139 12.864 2.219 3.285 1.916.032 5.509 2.33 2.982 1.91 3.52 8.612 3.899 11.841.527 4.485.178 23.095 6.556 23.17 5.813.069 4.073-11.927 3.367-15.277-1.765-8.379-7.205-14.516-11.847-21.382-2.262-3.346-5.069-7.305-6.172-11.248-.965-3.456.168-6.072.583-9.404.483-3.879 1.373-21.71 9.644-15.982 5.556 3.847 3.582 13.606 8.526 17.889.531-4.6-2.333-16.575 4.105-18.63 6.216-1.983 9.378 11.098 10.934 15.432.952 2.659 3.088 18.272 6.35 19.956 3.406 1.757 4.482-2.759 5.348-5.224 1.484-4.214 13.14-42.912 19.929-38.703 5.266 3.263-4.216 15.193-2.183 18.656.746 1.274 2.082.25 3.409.712 4.862 1.696 5.746 4.164 3.522 9.018 12.956 1.79-1.049 12.912-5.562 16.766-3.074 2.626-16.463 13.614-10.018 18.726 2.167 1.718 8.221-.044 10.927.644 5.221 1.329 6.019 6.217 1.971 9.63-2.783 2.349-6.988 3.493-10.535 3.96-2.036.272-7.755-.502-9.148 1.131 7.645 4.267 1.147 6.37-4.465 8.475-4.197 1.574-15.204 5.17-15.222 11.18 6.91-.636 13.59-3.136 20.421-4.254 7.48-1.222 14.729-2.81 22.313-4.835 14.381-3.842 29.583-7.228 44.261-9.413 7.179-1.07 14.322-2.6 21.424-4.096 2.561-.542 15.666-5.697 16.718-.56 1.421 6.95-18.722 5.668-22.426 7.843-26.542 5.068-52.798 11.668-79.397 16.066 2.37.571 7.635 4.584 5.742 7.567 2.073.257 5.857-.407 7.452 1.207 3.524 3.573-1.241 3.045-1.924 4.759-1.165 2.93 4.967 3.578 7.228 4.244 10.542 3.096 20.822 8.577 30.61 13.549 5.37 2.729 17.127 15.546 6.644 19.287-5.232 1.868-13.12-2.275-17.549-4.573-2.794-1.449-9.578-7.122-13.031-6.623-.196 4.083 4.99 12.182 6.456 15.743 3.104 7.53 4.479 13.328.621 20.953-9.167 18.114-16.471-14.685-19.04-13.362-1.806.931.763 16.222.993 18.179.508 4.338.676 16.737-5.961 17.335-5.569.501-7.869-10.544-9.128-14.161-1.056-3.034-3.158-6.075-3.962-9.568-.663-2.873-.202-5.927-.791-8.733-.612-2.918-3.04-4.499-3.772-7.783-.826-3.685-.781-8.007-1.265-11.814-.809-6.362-1.564-15.133-7.408-19.271-4.653 10.696 2.162 23.898 4.439 34.42 1.138 5.262 2.811 11.654-1.173 15.951-1.601 1.725-.734-.622-2.482 1.921-.393.57-.521 1.581-.727 2.237-1.469 4.705-2.303 9.551-3.647 14.284-.833 2.935-2.679 12.843-6.466 13.68-6.869 1.518-7.459-22.886-8.064-27.495-.455-3.486-.354-7.297-.961-10.691-.555-3.116-2.516-5.209-2.182-8.76.432-4.599 2.322-9.125 3.266-13.627 1.27-6.056 1.242-11.737.499-17.84-.308-2.528-.688-8.447-3.644-8.96-4.75-.823-3.702 8.728-3.747 11.232-.133 7.415 1.815 15.578-.173 23.671-2.054 8.373 2.764 16.14 2.02 24.527-.269 3.03-.948 4.424-2.88 6.646-2.145 2.474-3.244 3.598-4.341 7.345-.994 3.396-4.789 20.373-10.785 15.372-1.946-1.622-.988-5.271-.932-7.375.121-4.636-.017-9.288.218-13.92.149-2.94 1.022-6.274.281-9.191-.703-2.767-2.236-4.196-1.882-7.371.475-4.274 3.72-9.207 3.411-13.378-.292-3.977-1.789-7.868-1.69-12.166.081-3.419 3.301-21.162.662-22.182-5.364-2.076-5.715 19.839-5.775 21.506-.388 10.629.774 21.963.006 32.656-.259 3.593-2.047 5.445-3.183 8.226-1.51 3.693-1.276 8.621-2.508 12.549-.982 3.132-3.552 11.319-7.506 7.092-2.859-3.054-1.95-11.396-2.417-15.383-.525-4.508-1.372-8.916-1.381-13.467-.002-.979.397-2.898.117-3.781-.783-2.442-3.871-2.953-4.683-5.815.684 2.906.527 5.28-.935 7.812-.38.662-1.831 1.512-2.421 2.277-1.782 2.306-2.68 5.729-3.87 8.388-1.677 3.733-12.602 21.083-13.41 8.348-.345-5.443.234-10.994 1.02-16.365.615-4.221 2.224-9.276 1.58-13.52-.67-4.399-1.599-5.682.31-10.375 1.963-4.824 5.79-11.005 4.654-16.377-2.315-10.945-11.919 15.29-12.77 18.18-1.721 5.838-3.962 11.925-8.177 16.443-4.7 5.04-10.278 8.219-14.154 14.148-1.728 2.644-6.708 11.71-10.975 8.982-4.202-2.686 1.394-12.81 2.426-15.764 1.066-3.051 2.712-6.263 3.464-9.357.68-2.809.22-5.531.696-8.378 1.347-8.074 7.885-11.751 11.455-18.487 1.884-3.557 1.5-6.009-3.107-3.848-2.488 1.164-4.465 4.227-6.47 6.147-3.016 2.888-6.268 5.566-9.408 8.322-4.24 3.717-27.646 24.827-32.09 13.496Z" fill="#89B99A"/></svg>
